!!!!SEGMENT: Ser3005-Secourez_moy_ma_dame.krn
!!!id: Ser3005
!!!AGN: Chanson
!!!SCT: Cazeaux (1974)
!!!voices: 4
!!!COM: Claudin de Sermisy
!!!OTL: Secourez moy ma dame
**kern	**kern	**kern	**kern
*part4	*part3	*part2	*part1
*staff4	*staff3	*staff2	*staff1
*I"Bassus	*I"Tenor	*I"Altus	*I"Superius
*I'B	*I'T	*I'A	*I'S
*clefF4	*clefGv2	*clefGv2	*clefG2
*k[]	*k[]	*k[]	*k[]
*C:	*C:	*C:	*C:
*M2/1	*M2/1	*M2/1	*M2/1
*met(C|)	*met(C|)	*met(C|)	*met(C|)
=1	=1	=1	=1
2r	2r	2r	2r
2D	2D	2A	2d
1D	1F	2.A	1d
.	.	4B	.
=2	=2	=2	=2
1C	1G	1.c	1e
1F	1A	.	1f
.	.	2c	.
=3	=3	=3	=3
2r	2r	2A	2r
2D	2A	2.d	2f
2.F	2A	.	2f
.	.	4c	.
.	2A	[2c	2f
4E	.	.	.
=4	=4	=4	=4
2D	2A	2c]	2f
2D	4G	2B	4e
.	4F	.	4d
1C	2G	1c	2e
.	2G	.	2e
=5	=5	=5	=5
1FF	1F	1A	2.f
.	.	.	4e
2r	2r	2r	4d
.	.	.	4c
2BB-X	2D	2F	2d
=6	=6	=6	=6
2BB-i	4D	2F	2d
.	4E	.	.
2BB-i	4F	2D	2d
.	4G	.	.
2AA	1A	2E	2c
2D	.	4D	2f
.	.	4E	.
=7	=7	=7	=7
2D	2r	4F	2f
.	.	4G	.
2D	2A	4A	2f
.	.	4B	.
2C	2A	1c	2e
2AA	2A	.	2c
=8	=8	=8	=8
1.C	4G	2.c	2.e
.	4F	.	.
.	4E	.	.
.	4F	4B	4d
.	4G	2c	4e
.	4A	.	4f
2GG	4B	2d	4g
.	4A	.	4f
=9	=9	=9	=9
2C	4G	2c	4e
.	4F	.	4d
2D	4E	2B	1d
.	4D	.	.
1AA	1E	1A	.
.	.	.	2c#i
=10	=10	=10	=10
1D	1D	2r	1d
.	.	2D	.
2r	2r	2.F	2r
2D	2D	.	2d
.	.	4G	.
=11	=11	=11	=11
1D	1F	2.A	1d
.	.	4B	.
1C	1G	[1c	1e
=12	=12	=12	=12
1F	1A	2c]	1f
.	.	2c	.
2r	2r	2A	2r
2D	2A	[2d	2f
=13	=13	=13	=13
2.F	2A	4d]	2f
.	.	4c	.
.	2A	1c	2f
4E	.	.	.
2D	2A	.	2f
2D	4G	2B	4e
.	4F	.	4d
=14	=14	=14	=14
1C	2G	1c	2e
.	2G	.	2e
1FF	1F	1A	2.f
.	.	.	4e
=15	=15	=15	=15
2r	2r	2r	4d
.	.	.	4c
2BB-X	2D	2F	2d
2BB-i	4D	2F	2d
.	4E	.	.
2BB-i	4F	2D	2d
.	4G	.	.
=16	=16	=16	=16
2AA	1A	2E	2c
2D	.	4D	2f
.	.	4E	.
2D	2r	4F	2f
.	.	4G	.
2D	2A	4A	2f
.	.	4B	.
=17	=17	=17	=17
2C	2A	1c	2e
2AA	2A	.	2c
[1C	4G	2.c	2.e
.	4F	.	.
.	4E	.	.
.	4F	4B	4d
=18	=18	=18	=18
2C]	4G	2c	4e
.	4A	.	4f
2GG	4B	2d	4g
.	4A	.	4f
2C	4G	2c	4e
.	4F	.	4d
2D	4E	2B	[2d
.	4D	.	.
=19	=19	=19	=19
1AA	1.E	1A	2d]
.	.	.	2c
1D	.	2A	4d
.	.	.	4e
.	2D	[2d	4f
.	.	.	4g
=20	=20	=20	=20
2r	2r	2d]	4a
.	.	.	4b
2AA	2A	2c	2.cc
1AA	1c	[1e	.
.	.	.	4b
.	.	.	[2a
=21	=21	=21	=21
1E	1B	1e]	2a]
.	.	.	2g#i
1AA	1A	1c	1a
=22	=22	=22	=22
2r	2r	2r	2r
2D	2A	2d	2f
2.F	2A	2d	2f
.	2A	2c	2f
4E	.	.	.
=23	=23	=23	=23
2D	2A	2c	2f
2D	4G	2B	4e
.	4F	.	4d
1C	2G	1c	2e
.	2G	.	2e
=24	=24	=24	=24
1FF	1F	1A	2.f
.	.	.	4e
2r	2r	2r	4d
.	.	.	4c
2BB-X	2D	2F	2d
=25	=25	=25	=25
2BB-i	4D	2F	2d
.	4E	.	.
2BB-i	4F	2D	2d
.	4G	.	.
2AA	1A	2E	2c
2D	.	4D	2f
.	.	4E	.
=26	=26	=26	=26
2D	2r	4F	2f
.	.	4G	.
2D	2A	4A	2f
.	.	4B	.
2C	2A	1c	2e
2AA	2A	.	2c
=27	=27	=27	=27
1.C	4G	2.c	2.e
.	4F	.	.
.	4E	.	.
.	4F	4B	4d
.	4G	2c	4e
.	4A	.	4f
2GG	4B	2d	4g
.	4A	.	4f
=28	=28	=28	=28
2C	4G	2c	4e
.	4F	.	4d
2D	4E	2B	1d
.	4D	.	.
1AA	1E	1A	.
.	.	.	2c#i
=	=	=	=
1D	1D	2F	1d
.	.	2D	.
=29	=29	=29	=29
2r	2r	2.F	2r
2D	2D	.	2f
.	.	4G	.
1D	1F	1A	2.f
.	.	.	4e
=30	=30	=30	=30
1BB-X	1G	1D	2d
.	.	.	2d
2AA	1A	2E	2c
2D	.	4D	2f
.	.	4E	.
=31	=31	=31	=31
2D	2r	4F	2f
.	.	4G	.
2D	2A	4A	2f
.	.	4B	.
2C	2A	1c	2e
2AA	2A	.	2c
=32	=32	=32	=32
1.C	4G	2.c	2.e
.	4F	.	.
.	4E	.	.
.	4F	4B	4d
.	4G	2c	4e
.	4A	.	4f
2GG	4B	2d	4g
.	4A	.	4f
=33	=33	=33	=33
2C	4G	2c	4e
.	4F	.	4d
2D	4E	2B	1d
.	4D	.	.
1AA	1E	1A	.
.	.	.	2c#i
=34	=34	=34	=34
0D	0D	1A	0d
.	.	2F	.
.	.	2D	.
=35	=35	=35	=35
2r	2r	2.F	2r
2D	2D	.	2f
.	.	4G	.
1D	1F	1A	2.f
.	.	.	4e
=36	=36	=36	=36
1BB-X	1G	1D	2d
.	.	.	2d
2AA	1A	2E	2c
2D	.	4D	2f
.	.	4E	.
=37	=37	=37	=37
2D	2r	4F	2f
.	.	4G	.
2D	2A	4A	2f
.	.	4B	.
2C	2A	1c	2e
2AA	2A	.	2c
=38	=38	=38	=38
1.C	4G	2.c	2.e
.	4F	.	.
.	4E	.	.
.	4F	4B	4d
.	4G	2c	4e
.	4A	.	4f
2GG	4B	2d	4g
.	4A	.	4f
=39	=39	=39	=39
2C	4G	2c	4e
.	4F	.	4d
2D	4E	2B	1d
.	4D	.	.
1AA	1E	1A	.
.	.	.	2c#i
=40	=40	=40	=40
00Dl	00Dl	00Al	00dl
==	==	==	==
*-	*-	*-	*-
!!!system-decoration: [*]
!!!RDF**kern: i = editorial accidental
!!!RDF**kern: l = terminal long
!!!ENC: Benjamin Ory
!!!END: 2022/4/15
!!!EED: Benjamin Ory
!!!EEV: 2022/04/15
!!!YEC: Copyright 2022 Benjamin Ory, All Rights Reserved
!!!ONB: Translated from MusicXML on 2022/04/15
